X: 23859
T: Liza Lynn
R: waltz
M: 3/4
K: Amajor
CD|E2A3B|c4Bc|d2A3F|D4F2|E2G2B2|g2f2g2|a2ef ed|c4 CD|
E2A3B|c4Bc|d2A3F|D4F2|E2G2B2|g2f2g2|a2ag ab|a2z2cd|
ea az zA|Ac cz zd|df fd Bd|F4F2|E2G2B2|g2f2g2|a2ef ed|c3B cd|
ea az zA|Ac cz zd|df fd Bd|F4F2|E2G2B2|g2f2g2|a2ag ab|a2z4|

